bpm = 90

setcps (bpm/60/4)


d9
  $ (|* amp 0.3)
  $ slow 2
  $ mix ((|- n 7).(|* amp 0.8))
  $ (|+ n 12)
  $ s (fit 0 ["padDirt"] "0 0 0 0 ~~~0/4 ~~0~ ~~~~")
  # n "[<a2 cs2 a2 cs2> <d4 d4 d4 cs4> <e5,b4> <af5 af5 af5 fs5>] [~] [~] [~]"
  # amp "[0.8 1 0.7 0.7] 0.8 1 1"
  # sustain "[10 0.8 0.8 2] 1.5 1 1"
  # church 1
  # tremolorate 9 # tremolodepth 0.4
  # pingpong 0.4 # pingpongt (3/8) # pingpongfb 0.8
  # room 0.8 # sz 0.99
  # scReverb 1


d6
  $ slow 4
  -- $ (0.125 ~>)
  $ mix ((|+ n 12).(|* amp 0.5))
  $ every' 4 3 (degradeBy "0 1")
  $ every' 4 2 (degradeBy "1 0")
  $ every' 4 1 (degradeBy "0 0")
  $ every' 4 0 (degradeBy "0 1")
  $ s "[~[vibratoSineWave]] ~ ~ [vibratoSineWave] "
  # sustain 20
  # pF "octaveMix" 0.8
  # n "<fs5,d5,b4>  <e5,af5,cs5> "
  # vibratoFreq 10 # vibratoDepth 0.3
  # tremolorate (range 5 9 rand) # tremolodepth 0.7
  # church 1
  # scReverb 1.3 # ice 0.2
  # room 0.8 # sz 0.99
  # pingpong 0.6 # pingpongt (3/8) # pingpongfb 0.6
  # amp 0.07

d1
  $ fast (2/3)
  $ (|* speed (2/3))
  $ degradeBy 0.3
  $ sometimesBy 0.95 (|+ n (choose [0..1]))
  $ s "record"
  # speed 0.8
  # n 7
  # hpf 150
  # amp 0.3

d2
  $ slow 4
  $ degradeBy 0.4
  $ s "~ [~cassette] ~ cassette"
  # speed (range 0.4 0.3 $ slow 3 rand)
  # n (choose [4,6,7,8,9,10])
  -- # cut 1
  # lpf 4000
  # resi 1
  # theta (range (-0.3) 0.3 $ fast 7 rand)
  # amp (range 0.08 0.12 $ slow 5 rand)

d3
  -- $ slow 1
  $ degradeBy 0.8
  $ s "[~cable]*2"
  # speed (choose [0.5,0.75,1])
  # room 0.1
  # n (choose [0..4])
  # theta (range (-1) 1 $ fast 7 rand)
  # amp 0.15

d4
  $ fast 0.5
  $ s "~ [~gagaku]"
  # n (choose [0,1])
  -- # n (choose [2,3])
  # theta (range (-0.2) 0.2 $ fast 2 sine)
  # resi 1
  # amp 0.3



once
  $ s "coin"
  # resi 1
  -- # room 0.9 # sz 0.97 # dry 4
  # scReverb 0.8 # ice 1
  # theta 0.0
  # lpf 6000
  # amp 0.6
  # orbit 11

once
  $ s "guitar_async"
  # up 2
  # n 0
  # church 1
  # amp 0.1
  # orbit 10


