bpm = 90

setcps (bpm/60/4)

d9
  $ fast 0.5
  $ degradeBy 0.2
  $ every' 2 1 (degradeBy 1)
  $ mix ((|- n 5).(|* amp 0.8))
  $ sometimesBy 0.3 (0.125 ~>)
  $ sometimesBy 0.2 (0.25 ~>)
  -- $ sometimesBy 0.1 (0.5 ~>)
  -- $ mix ((|+ n 12).(|* amp 0.7))
  $ s "vibratoSineWave ~ ~ vibratoSineWave"
  # sustain "1.4 2.0"
  # pF "octaveMix" 0.8
  # n "<cs4,a4,fs5> <<a4,b4,e5> <a4,b4,e5> <d4,b4,gs5> <d4,b4,gs5> <a4,b4,e5> <a4,b4,e5> <e4,fs4,b4> <e4,fs4,b4>>"
  -- # n "<cs4,a4,fs5> <<a4,b4,e5> <a4,b4,e5> <cs4,a4,fs5> <cs4,a4,fs5> <a4,b4,e5> <a4,b4,e5> <e4,fs4,b4> <e4,fs4,b4>>"
  # vibratoFreq 10 # vibratoDepth 0.3
  # tremolorate (range 7 10 rand) # tremolodepth 0.7
  # church 1
  -- # lpf 7000
  # scReverb 1.3 # ice 0.7
  # room 0.8 # sz 0.96
  -- # pingpong 0.6 # pingpongt (3/8) # pingpongfb 0.6
  # amp 0.14


d8
  $ fast 0.5
  $ (|* amp 1)
  -- $ degradeBy 0.2
  $ sometimesBy 0.1 (|+ up 12)
  -- $ sometimesBy 0.4 (|- up 12)
  $ s "[~guitar_async] [~[~guitar_async]]"
  # speed (-1)
  # up (choose [0,2,5,7,12])
  # n (choose [0..6])
  # theta (range (-1) 1 $ fast 7 rand)
  -- # church 1
  # resi 1
  # lpf 7000
  # room 0.8 # sz 0.98
  # amp (range 0.1 0.3 $ slow 9 rand)


-- bachibachi
d7
  $ (|* amp 1)
  $ degradeBy 0.7
  $ fast (range 1 10 rand)
  $ (|* amp (range 0.5 1 rand))
  $ (|* amp "[0.37 0.02]*10")
  $ s "nailClapper*20"
  # n (range (-20) 10 $ slow 3 rand)
  # theta (range (-0.3) 0.3 rand)
  # sustain (range 0.06 0.3 rand)
  # amp 0.3


-- rainfall on the roof
d7
  $ fast (range 1 2 rand)
  $ someCyclesBy 0.3 (degradeBy 1)
  -- $ sometimesBy 0.4 (degradeBy 1) $ (|* gain (range 0.5 1 rand))
  $ (|* amp "[1 0.2]*5")
  $ s "nailClapper*10"
  # n "<10,40>"
  -- # theta (range (0.65) (0.85) rand*rand) # dis 1
  # sustain (range 0.1 0.3 rand*rand)
  -- # room 0.7 # sz 0.9
  # resi 1
  # lpf (range 2000 1500 rand*rand)
  -- # delay 0.5 # delayt (1/16) # delayfb 0.6 # lock 1
  # amp 0.6



-- sketch1
d1
  $ (|+ n 12)
  -- $ whenmod 4 2 ((1/8)<~)
  $ stut' 2 (1/2) ((|* amp 0.3).(|> theta (-0.5)).(|> lpf 2000))
  $ stut' 8 (1/4) ((|* amp 0.2).(|> theta (0.5)).(|> lpf 2000))
  $ s "~ supergong/4"
  # n "<a6,e7,b6>"
  # amp 0.07
  # sustain 4
  # church 1
  # lpf 5000
  # scReverb 1 # ice 0.0
  # room 0.8 # sz 0.99
  # theta 0



d2
  $ (|* amp 2.5)
  $ fast (range 0.5 1.5 $ slow 3 rand)
  $ s "~tableware"
  # n 1
  # speed (range 0.7 1.5 $ slow 7 rand)
  # theta (range (-1) 1 rand)
  # room 0.5
  # amp (range 0.1 0.4 $ slow 3 rand)


d3
  $ fast (1/16)
  $ sometimesBy 0.5 (mix ((|- n 2)))
  $ sometimesBy 0.6 (mix ((|- n 5)))
  $ s (fit 0 ["superfm"] "~~0~ ~0~~ 0~~0 ~~0~ ~0")
  # n "cs6"
  # sustain 0.11
  # room 0.8 # sz 0.2
  # amp 0.06

d4
  $ sometimesBy 0.1 (density 2)
  $ sometimesBy 0.5 ((1/16) ~>)
  $ ((1/8)~>)
  $ s (fit 0 ["liminalbd"] "0 0 0 0")
  # amp 0.08
  # hpf 60


d5
  -- $ s "simpleSawWave"
  $ s "[~ simpleSawWave/2] ~ ~ ~"
  # n "<e2>"
  # sustain 3
  # hpf 50 # hpq 0.3
  # lpf 700
  # amp 0.35
  # orbit 4


-- sketch2

once
  -- $ mix ((|- n 12).(|* amp 0.4))
  $ s "FastSinSynth"
  # theta (-0.0)
  # sustain 10
  # n "<fs6,gs6>"
  # church 1
  # room 0.6 # sz 0.8
  # amp 0.1
  # pingpong 0.7 # pingpongt (1/8) # pingpongfb 0.9
  # orbit 10




